!!!OTL: Deutsch vor Allem.
!!!OTL-incipit:VOR ALLEN LANDEN HOCHGEEHRT
!!!COM: C. F. D. Schubart
!!!ARE: Europa, Mitteleuropa, Deutschland
!!!SCT: F0439
!!!TXL: @@DE
!!!YEM: Copyright 1995, estate of Helmut Schaffrath.
**kern	**text
*ICvox	*
*M4/4	*
*met(c)	*
*k[b-e-a-]	*
*E-:	*
!LO:TX:a:t=(Weise. Auf, auf, ihr Brüder, und seid stark. Vgl. Nr. 521, S. 326)	!
!LO:TX:a:t=Mäßig.	!
{4b-	1._Vor
=1	=1
4.ee-	al-
8b-/	-len
8b-L	Lan-
8a-J	.
8gL	-den
8fJ	.
=2	=2
4e-	hochgeehrt
4e-	.
4e-}	.
{4g	ſoll
=3	=3
4.f	mir
8b-/	das
8dd/L	deutſche
8ccJ	.
8b-L	.
8anJ	.
=4	=4
2b-/	ſein;
4r}	.
{8b-L	da
8a-J	.
=5	=5
4g	herrſcht
4g	noch
4.g	Treue
8b-/	.
=6	=6
8b-L	und
8a-J	.
8a-L	Vertraun,
8gJ	.
4a-}	.
{8a-L	da
8gJ	.
=7	=7
4f	kann
4f	man
4.f	ſi-
8a-	-cher
=8	=8
8a-L	Hüt-
8gJ	.
8gL	-ten
8fJ	.
4g}	baun
{4b-	und
=9	=9
4.ee-	ſich
8b-	des
8a-L	Le-
8gJ	.
8fL	-bens
8e-J	.
=10	=10
2b-/}	freun,
{2dd/	und
=11	=11
4.ee-/	ſich
8cc/	des
8b-L	Le-
8a-J	.
8gL	-bens
8fJ	.
=12	=12
4e-	freun.
8.gL	.
16gJ	.
4e-}	.
==	==
!!!AGN: Vaterlands -, Heimat - Lied, nationalistisch
!!!ONB: ESAC (Essen Associative Code) Database: FINK
!!!AMT: simple quadruple
!!!AIN: vox
!!!EED: Helmut Schaffrath
!!!EEV: 1.0
!!!GTL: Vaterlands- und Heimathslieder.
!!!source: Musikalischer Hausschatz der Deutschen. Eine Sammlung von über 1000 Liedern und Gesängen mit Singstimmen und Klavierbegleitung. Leipzig, Litterarisches Verlags-Haus.
!!!page: 271
!!!ENC: Anna Maria Matuszewska
!!!EEV: 2025/03/14
*-	*-
